X:1
T:Isla Side Lasses
T:Isla Side Lasses
T:Alexander Walker
C:Alexander Walker
L:1/8
M:2/2
K:Bmin
V:1 treble 
V:1
 B,2 BF AECA, | B,2 BF Bcdf | abae cAec | dfec (B2 B) :| ^a | bBgB aAec | bBfB aBfB | aBfB aAcA | %8
 dfec (B2 B)^a | b(Bf)(B a)(Ae)c | bBfB def^g | afed cAAc | dfec (B2 B) || %13

